X:1
T:Title
%%score { ( 1 3 ) | ( 2 4 ) }
L:1/8
Q:1/4=100
M:4/4
K:A
V:1 treble nm="Grand Piano"
V:3 treble 
V:2 bass 
V:4 bass 
V:1
 [CE]2 [Ec]2 [DB][CA] [CE]2 | [CE]2 [CA]2 GF F2 | EEEE B^AB=c | [Ec]4 [CA]4 | %4
w: J.~Lincoln~Hall * * * *||||
 [CE]2 [Ec]2 [DB][CA] [CE]2 | [CE]2 [CA]2 GF F2 | EEEE [Fd][Fd][Ec][DB] | [CA]6 z2 | %8
w: ||||
 z2 A,>A, [Ec]2 [Ec]2 | [Ec]4 B4 | [Gd][Fd][Ed][Fd] [Gd][Gd][Gc][GB] | [EAc]6 z2 | %12
w: ||||
 A,2 A,>A, [Ec]2 [Ec]2 | [Fd]4 [DF]4 | EEAA AGFG | [CA]6 z2 |] %16
w: ||||
V:2
 [A,,A,]2 [A,,A,]2 [A,,A,][A,,A,] [A,,A,]2 | [A,,A,]2 [A,,A,]2 [D,A,D][D,A,D] [D,A,D]2 | %2
 [E,G,D][E,G,D][E,G,D][E,G,D] [E,G,D][E,G,C][E,G,D][E,G,^D] | [A,,A,]8 | %4
 [A,,A,]2 [A,,A,]2 [A,,A,][A,,A,] [A,,A,]2 | [A,,A,]2 [A,,A,]2 [D,A,D][D,A,D] [D,A,D]2 | %6
 [E,G,D][E,G,D][E,G,D][E,G,D] [E,G,][E,G,][E,G,][E,G,] | [A,,A,]6 z2 | %8
 [A,,A,]2 A,,>A,, [A,,A,]2 [A,,A,]2 | z4 D4 | [E,B,][E,B,][E,B,][E,B,] [E,B,][E,B,][E,E][E,E] | %11
 A,A,E,C, A,,2 z2 | A,,2 A,,>A,, [A,,A,]2 [A,,A,]2 | [D,A,]2 D,>D, D,2 D,2 | %14
 [E,A,C][E,A,C][E,A,C][E,A,C] [E,B,D][E,B,D][E,B,D][E,B,D] | [A,,A,]6 z2 |] %16
V:3
 x8 | x8 | x8 | x8 | x8 | x8 | x8 | x8 | [CE]4 z4 | z2 A,>A, z2 G,2 | x8 | x8 | [CE]4 z4 | %13
 z2 A,>A, A,2 A,2 | x8 | x8 |] %16
V:4
 x8 | x8 | x8 | x8 | x8 | x8 | x8 | x8 | x8 | [E,A,]2 E,>E, [E,G,]2 E,2 | x8 | x8 | x8 | x8 | x8 | %15
 x8 |] %16

